img/phone-red.svg

<svg xmlns="http://www.w3.org/2000/svg" width="27" height="28" viewBox="0 0 27 28" fill="none">
  <path d="M0 6.18473C0.0123696 4.90513 0.531008 3.81848 1.47286 2.94758C2.18146 2.29331 2.9254 1.66974 3.69762 1.0909C5.03971 0.0849375 6.47989 0.31209 7.46327 1.66974C7.77604 2.10124 8.00841 2.59151 8.27171 3.05809C9.04039 4.42101 9.82144 5.77778 10.5627 7.15473C10.8084 7.61079 11.0142 8.10894 11.122 8.61236C11.3102 9.49291 10.9692 10.2165 10.2022 10.6892C9.85413 10.9032 9.44328 11.0304 9.04657 11.1505C8.45637 11.3294 8.21339 11.8276 8.49082 12.374C8.5403 12.4704 8.60569 12.5608 8.67372 12.6459C10.4788 14.8998 12.5198 16.9196 14.802 18.6956C14.991 18.843 15.2473 18.9465 15.4849 18.9807C15.9143 19.043 16.1944 18.8167 16.3128 18.4001C16.3755 18.18 16.4286 17.9546 16.5134 17.7423C16.9967 16.5294 18.0163 16.0216 19.278 16.3768C19.5722 16.4592 19.8646 16.575 20.1324 16.7214C21.8959 17.6879 23.655 18.6632 25.4115 19.6437C26.0132 19.9796 26.4753 20.4576 26.751 21.0935C27.1379 21.9872 27.0885 22.866 26.5 23.643C25.8983 24.4367 25.264 25.2147 24.5713 25.9294C23.1461 27.402 21.4232 27.7616 19.5201 27.0029C12.3784 24.1534 6.71491 19.5481 2.79994 12.9291C1.94379 11.482 1.25639 9.93669 0.515104 8.42468C0.174941 7.73094 0.00706832 6.98283 0 6.18473Z" fill="#C8102E"/>
</svg>

<svg xmlns="http://www.w3.org/2000/svg" width="27" height="28" fill="none"><path d="M0 6.185c.012-1.28.531-2.367 1.473-3.237A28.383 28.383 0 013.698 1.09C5.04.085 6.48.312 7.463 1.67c.313.431.545.922.809 1.388.768 1.363 1.55 2.72 2.29 4.097.246.456.452.954.56 1.457.188.88-.153 1.604-.92 2.077-.348.214-.759.341-1.155.461-.59.18-.834.678-.556 1.224.05.096.115.187.183.272a36.73 36.73 0 006.128 6.05c.189.147.445.25.683.285.43.062.71-.164.828-.58.063-.221.116-.446.2-.659.484-1.213 1.503-1.72 2.765-1.365a4.1 4.1 0 01.854.344c1.764.967 3.523 1.942 5.28 2.923.601.336 1.063.814 1.339 1.45.387.893.337 1.772-.251 2.549a24.775 24.775 0 01-1.929 2.286c-1.425 1.473-3.148 1.833-5.05 1.074-7.143-2.85-12.806-7.455-16.721-14.074-.856-1.447-1.544-2.992-2.285-4.504A5.125 5.125 0 010 6.185z" fill="#C8102E"/></svg>
